X: 26702
T: Mike Flanagan's
R: reel
M: 4/4
K: Edorian
B(E{G}E)D E2Bd|B~E3 FDFA|B~E3 Bcdf|1 edBA GEDE:|2 edBA GEFA||
G2dG eGdG|G2dB AFDF|G2 dG eGdG|egdB AFDF|
G2dG eGdG|FGdF AFDF|EFGA Bcdf|edBA GEFA||

